X: 12137
T: Evil Suggestion
R: reel
M: 4/4
K: Bminor
|:E2EG FEDF|EF/G/Bd cAA2|E2EG FDEF|GBdc G4|
~E3G FEDF|EF/G/Bd cABc|d2AG FADF|GFEG F~B3:|
|:FBBc dcBd|c2ef gfeg|fBBA BAFA|GFEG F~B3|
FBBc dcBd|c2ef gfga|bggf gfed|edce d~B3:|

